X: 2422
M: C
L: 1/8
K: A
(AB) |\
(3cBA (3cBA F>AE>c | d>ef>g (3(agf) (3(efg) |\
a>ec>A B>AF2 | A6 :|\
c>B |\
d>ef>g (3(agf) (3(efg) | a>ec>A B>AF2 |\
d>ef>g a2e>d | (3(cBA) G>B A2 |]


